.local/share/icons/Gruvbox-Plus-Dark/actions/16/edit-link.svg

<svg xmlns="http://www.w3.org/2000/svg" width="16" height="16" viewBox="0 0 16 16">
 <defs>
  <style id="current-color-scheme" type="text/css">
   .ColorScheme-Text { color:#ebdbb2; } .ColorScheme-Highlight { color:#458588; }
  </style>
 </defs>
 <path style="fill:currentColor" class="ColorScheme-Text" d="M 5 3.0117188 C 2.23 3.0117188 0 5.2417187 0 8.0117188 C 0 10.781719 2.23 13.011719 5 13.011719 L 7 13.011719 L 7 11.011719 L 5 11.011719 C 3.338 11.011719 2 9.6737187 2 8.0117188 C 2 6.3497188 3.338 5.0117188 5 5.0117188 L 7 5.0117188 L 7 3.0117188 L 5 3.0117188 z M 9 3.0117188 L 9 5.0117188 L 11 5.0117188 C 12.662 5.0117188 14 6.3497188 14 8.0117188 C 14 9.6737187 12.662 11.011719 11 11.011719 L 9 11.011719 L 9 13.011719 L 11 13.011719 C 13.77 13.011719 16 10.781719 16 8.0117188 C 16 5.2417187 13.77 3.0117188 11 3.0117188 L 9 3.0117188 z M 5 7.0117188 L 5 9.0117188 L 11 9.0117188 L 11 7.0117188 L 5 7.0117188 z"/>
</svg>

<svg width="16" height="16" version="1.1" xmlns="http://www.w3.org/2000/svg">
  <defs>
    <style id="current-color-scheme" type="text/css">.ColorScheme-Text { color:#ebdbb2; } .ColorScheme-Highlight { color:#458588; }</style>
  </defs>
  <path class="ColorScheme-Text" d="m5 3.012c-2.77 0-5 2.23-5 5s2.23 5 5 5h2v-2h-2c-1.662 0-3-1.338-3-3s1.338-3 3-3h2v-2h-2zm4 0v2h2c1.662 0 3 1.338 3 3s-1.338 3-3 3h-2v2h2c2.77 0 5-2.23 5-5s-2.23-5-5-5h-2zm-4 4v2h6v-2h-6z" fill="currentColor"/>
</svg>
